lib/brands/icons/selenium.svg

<svg xmlns="http://www.w3.org/2000/svg" fill="none" aria-hidden="true" viewBox="0 0 48 48"><g id="selenium-Icon"><g id="Group"><path id="Vector" fill="#2CB134" d="M36.6626 8.00041C36.7407 7.99547 36.8149 8.03543 36.8537 8.10342C36.8926 8.17141 36.8894 8.25558 36.8454 8.3204L28.9371 19.063C28.8791 19.1284 28.7959 19.1659 28.7085 19.1659C28.6211 19.1659 28.5379 19.1284 28.4799 19.063L25.6914 15.9545C25.6233 15.8838 25.5268 15.8478 25.429 15.8567C25.3313 15.8656 25.2428 15.9184 25.1886 16.0002L23.4972 18.1487C23.4437 18.2697 23.4613 18.4103 23.5429 18.5144L28.5713 23.7257C28.6293 23.7911 28.7125 23.8286 28.7999 23.8286C28.8873 23.8286 28.9705 23.7911 29.0285 23.7257L38.9025 12.6174C38.9608 12.5548 39.0512 12.5335 39.1313 12.5636C39.2114 12.5936 39.2655 12.669 39.2682 12.7546V39.771C39.272 39.8327 39.2491 39.8931 39.2054 39.9368C39.1617 39.9805 39.1014 40.0034 39.0397 39.9996H8.96042C8.89871 40.0034 8.83835 39.9805 8.79464 39.9368C8.75093 39.8931 8.72807 39.8327 8.73185 39.771V8.22898C8.72807 8.16727 8.75093 8.10691 8.79464 8.0632C8.83835 8.01949 8.89871 7.99663 8.96042 8.00041H36.6626ZM28.8913 26.2399C27.5304 26.216 26.2188 26.7493 25.2607 27.716C24.3025 28.6828 23.781 29.9992 23.8172 31.3598C23.8172 34.514 26.1028 36.5254 29.0742 36.5254C30.4497 36.5596 31.7985 36.1421 32.9141 35.3369C33.0175 35.243 33.0369 35.0876 32.9598 34.9712L32.137 33.7369C32.0445 33.6308 31.887 33.6111 31.7713 33.6912C31.0561 34.1796 30.2143 34.4496 29.3485 34.4683C27.7485 34.4683 26.7428 33.4626 26.56 32.2741C26.5633 32.225 26.6023 32.186 26.6514 32.1827H33.5541C33.7012 32.1727 33.8184 32.0555 33.8284 31.9084V31.6341C33.8284 28.4342 31.817 26.2399 28.8913 26.2399ZM22.0801 24.5028C20.6916 23.3679 18.9348 22.7823 17.1431 22.8572C14.0346 22.8572 12.1146 24.6857 12.1146 26.8799C12.1146 31.8627 19.703 30.2627 19.703 32.5941C19.703 33.3255 18.9716 34.0569 17.4173 34.0569C15.9412 34.0691 14.517 33.5125 13.4403 32.5026C13.376 32.4425 13.2889 32.4131 13.2014 32.4219C13.1138 32.4306 13.0343 32.4767 12.9832 32.5484L11.7946 34.194C11.7175 34.3105 11.7369 34.4658 11.8403 34.5597C13.0746 35.7026 14.8117 36.4797 17.2345 36.4797C20.8001 36.4797 22.5372 34.6512 22.6286 32.2741C22.6286 27.3371 15.0403 28.7542 15.0403 26.6514C15.0403 25.8742 15.726 25.3257 16.9145 25.3257C18.2247 25.3077 19.5007 25.7438 20.5258 26.5599C20.5861 26.6093 20.6637 26.6323 20.7412 26.6237C20.8186 26.6151 20.8893 26.5756 20.9373 26.5142L22.1258 24.9143C22.1752 24.854 22.1982 24.7764 22.1896 24.6989C22.1809 24.6215 22.1415 24.5508 22.0801 24.5028ZM28.9371 28.2513C30.1804 28.1818 31.2538 29.1134 31.3598 30.3541C31.3565 30.4032 31.3175 30.4422 31.2684 30.4456H26.6057C26.5566 30.4422 26.5176 30.4032 26.5143 30.3541C26.6671 29.1377 27.7112 28.2315 28.9371 28.2513Z"/></g></g></svg>

<svg xmlns="http://www.w3.org/2000/svg" fill="none" aria-hidden="true" viewBox="0 0 48 48"><path fill="#2CB134" d="M36.663 8a.205.205 0 0 1 .182.32l-7.908 10.743a.306.306 0 0 1-.457 0l-2.789-3.108a.324.324 0 0 0-.502.045l-1.692 2.149a.358.358 0 0 0 .046.365l5.028 5.212a.305.305 0 0 0 .457 0l9.875-11.109a.211.211 0 0 1 .365.138V39.77a.216.216 0 0 1-.228.229H8.96a.216.216 0 0 1-.228-.229V8.229A.216.216 0 0 1 8.96 8h27.703ZM28.89 26.24a4.989 4.989 0 0 0-5.074 5.12c0 3.154 2.286 5.165 5.257 5.165a6.294 6.294 0 0 0 3.84-1.188.283.283 0 0 0 .046-.366l-.823-1.234a.276.276 0 0 0-.366-.046 4.467 4.467 0 0 1-2.423.777c-1.6 0-2.605-1.005-2.788-2.194a.098.098 0 0 1 .091-.091h6.903a.295.295 0 0 0 .274-.275v-.274c0-3.2-2.011-5.394-4.937-5.394Zm-6.811-1.737a7.318 7.318 0 0 0-4.937-1.646c-3.109 0-5.028 1.829-5.028 4.023 0 4.983 7.588 3.383 7.588 5.714 0 .731-.732 1.463-2.286 1.463a5.744 5.744 0 0 1-3.977-1.554.305.305 0 0 0-.457.045l-1.188 1.646a.283.283 0 0 0 .045.366c1.235 1.143 2.972 1.92 5.394 1.92 3.566 0 5.303-1.829 5.395-4.206 0-4.937-7.589-3.52-7.589-5.623 0-.777.686-1.325 1.874-1.325a5.673 5.673 0 0 1 3.612 1.234.29.29 0 0 0 .411-.046l1.189-1.6a.29.29 0 0 0-.046-.411Zm6.857 3.748a2.303 2.303 0 0 1 2.423 2.103.098.098 0 0 1-.092.092h-4.662a.098.098 0 0 1-.092-.092 2.403 2.403 0 0 1 2.423-2.103Z"/></svg>
